X:1323
T:Grinds Hans jässpôdspolska, efter Börjes Olle
O:Rättvik, Dalarna
M:3/4
L:1/16
S:"Ola & Per" CD-Skiva
R:Polska
Z:ABC-transkribering av Linus Fredin
K:C
G4 c4 {Bc}d3e|(3f4e4c4 A4-|(3A4(f4{gf}e4) d3c|(3c2B2c2 (dedB) G4-|
G4 c4 {Bc}d3e|(3f4e4c4 A4-|(3A4(f4{gf}e4) d3c|(Bd3) c8:|
|:(3c3eg2- (3g2f2-f2 (3e2-e2d2|(3c2f2a2- (3a2g2-g2 (3f2-f2e2|d3e (fg)fe d3c|(3c2B2c2 dedB G4-|
G3g- (3g2f2-f2 (3e2-e2d2|(3c2f2a2- (3a2g2-g2 (3f2-f2e2|d3e (fg)fe d3c|(B2{cB}AB) c8:|

(:musicend:)
(:music:)
